X: 12
T: Kitty's Rambles
R: jig
M: 6/8
L: 1/8
K: Dmix
|:DFA cAA|dB/c/d efg|fed cAG|F3 GEA|
|D3 cAA|df/g/d efg|fed cAG|Ad^c d2A:|
|:df/g/a df/g/a|df/g/a afd|ceg ceg|ce/f/g gfe|
|fc'/a/f g3|afd efg|f{g}f/e/d ^cAG|1 Ad^c d2A:|2 Ad^c d (3efg|
|:fdf ece|df/g/d cAG|F3 GEA|D3 GED|
AF/G/A cAG|dB/c/d efg|fed ^cAG|Ad^c d2f:|
|: afd dAd|Adf agf|gec cBc|Gce gfe|
|1 fdf g3|afd efg|f{g}fed ^cAG|Ad^c dfg:|
|2 fdf g3|a3 bag|f{g}fed ^cAG|Ad^c d2G||


Tune 1843	Setting 15274

